assets/1. F-P/Male sign/Color/Male.Sign-color.svg

<svg width="100%" height="100%" viewBox="0 0 32 32" fill="none" xmlns="http://www.w3.org/2000/svg">
<g filter="url(#filter0_ii_18590_1681)">
<rect x="2.28934" y="2.0625" width="27.875" height="27.875" rx="3.6" fill="url(#paint0_linear_18590_1681)"/>
<rect x="2.28934" y="2.0625" width="27.875" height="27.875" rx="3.6" fill="url(#paint1_radial_18590_1681)"/>
</g>
<g filter="url(#filter1_f_18590_1681)">
<path d="M28.4768 4.5625V27.4375" stroke="url(#paint2_linear_18590_1681)" stroke-width="1.5" stroke-linecap="round"/>
</g>
<g filter="url(#filter2_f_18590_1681)">
<path d="M5.7532 3.875H27.5345" stroke="url(#paint3_linear_18590_1681)" stroke-width="1.5" stroke-linecap="round"/>
</g>
<g filter="url(#filter3_f_18590_1681)">
<path d="M20.9065 6.03906C20.3542 6.03906 19.9065 6.48678 19.9065 7.03906C19.9065 7.59135 20.3542 8.03906 20.9065 8.03906H22.5794C22.6682 8.03906 22.7129 8.14617 22.6505 8.20934L19.3116 11.5895C19.276 11.6256 19.219 11.6292 19.1786 11.5984C17.8331 10.5711 16.152 9.96094 14.3284 9.96094C9.91012 9.96094 6.3284 13.5427 6.3284 17.9609C6.3284 22.3792 9.91012 25.9609 14.3284 25.9609C18.7467 25.9609 22.3284 22.3792 22.3284 17.9609C22.3284 16.1505 21.727 14.4805 20.7131 13.1399C20.6829 13.1 20.6863 13.0438 20.7215 13.0082L23.9541 9.7356C24.0169 9.672 24.1253 9.71649 24.1253 9.80587V11.3359C24.1253 11.8882 24.573 12.3359 25.1253 12.3359C25.6776 12.3359 26.1253 11.8882 26.1253 11.3359V7.03906C26.1253 6.48678 25.6776 6.03906 25.1253 6.03906H20.9065ZM14.3284 11.9609C17.6421 11.9609 20.3284 14.6472 20.3284 17.9609C20.3284 21.2746 17.6421 23.9609 14.3284 23.9609C11.0147 23.9609 8.3284 21.2746 8.3284 17.9609C8.3284 14.6472 11.0147 11.9609 14.3284 11.9609Z" fill="#579FFF"/>
</g>
<g filter="url(#filter4_ii_18590_1681)">
<path d="M20.9065 6.03906C20.3542 6.03906 19.9065 6.48678 19.9065 7.03906C19.9065 7.59135 20.3542 8.03906 20.9065 8.03906H22.5794C22.6682 8.03906 22.7129 8.14617 22.6505 8.20934L19.3116 11.5895C19.276 11.6256 19.219 11.6292 19.1786 11.5984C17.8331 10.5711 16.152 9.96094 14.3284 9.96094C9.91012 9.96094 6.3284 13.5427 6.3284 17.9609C6.3284 22.3792 9.91012 25.9609 14.3284 25.9609C18.7467 25.9609 22.3284 22.3792 22.3284 17.9609C22.3284 16.1505 21.727 14.4805 20.7131 13.1399C20.6829 13.1 20.6863 13.0438 20.7215 13.0082L23.9541 9.7356C24.0169 9.672 24.1253 9.71649 24.1253 9.80587V11.3359C24.1253 11.8882 24.573 12.3359 25.1253 12.3359C25.6776 12.3359 26.1253 11.8882 26.1253 11.3359V7.03906C26.1253 6.48678 25.6776 6.03906 25.1253 6.03906H20.9065ZM14.3284 11.9609C17.6421 11.9609 20.3284 14.6472 20.3284 17.9609C20.3284 21.2746 17.6421 23.9609 14.3284 23.9609C11.0147 23.9609 8.3284 21.2746 8.3284 17.9609C8.3284 14.6472 11.0147 11.9609 14.3284 11.9609Z" fill="#FCF2FF"/>
</g>
<defs>
<filter id="filter0_ii_18590_1681" x="2.28934" y="1.0625" width="28.875" height="28.875" filterUnits="userSpaceOnUse" color-interpolation-filters="sRGB">
<feFlood flood-opacity="0" result="BackgroundImageFix"/>
<feBlend mode="normal" in="SourceGraphic" in2="BackgroundImageFix" result="shape"/>
<feColorMatrix in="SourceAlpha" type="matrix" values="0 0 0 0 0 0 0 0 0 0 0 0 0 0 0 0 0 0 127 0" result="hardAlpha"/>
<feOffset dx="1" dy="-1"/>
<feGaussianBlur stdDeviation="1.5"/>
<feComposite in2="hardAlpha" operator="arithmetic" k2="-1" k3="1"/>
<feColorMatrix type="matrix" values="0 0 0 0 0.188235 0 0 0 0 0.470588 0 0 0 0 0.843137 0 0 0 1 0"/>
<feBlend mode="normal" in2="shape" result="effect1_innerShadow_18590_1681"/>
<feColorMatrix in="SourceAlpha" type="matrix" values="0 0 0 0 0 0 0 0 0 0 0 0 0 0 0 0 0 0 127 0" result="hardAlpha"/>
<feOffset dy="-1"/>
<feGaussianBlur stdDeviation="1.5"/>
<feComposite in2="hardAlpha" operator="arithmetic" k2="-1" k3="1"/>
<feColorMatrix type="matrix" values="0 0 0 0 0.27451 0 0 0 0 0.34902 0 0 0 0 0.8 0 0 0 1 0"/>
<feBlend mode="normal" in2="effect1_innerShadow_18590_1681" result="effect2_innerShadow_18590_1681"/>
</filter>
<filter id="filter1_f_18590_1681" x="25.7268" y="1.8125" width="5.5" height="28.375" filterUnits="userSpaceOnUse" color-interpolation-filters="sRGB">
<feFlood flood-opacity="0" result="BackgroundImageFix"/>
<feBlend mode="normal" in="SourceGraphic" in2="BackgroundImageFix" result="shape"/>
<feGaussianBlur stdDeviation="1" result="effect1_foregroundBlur_18590_1681"/>
</filter>
<filter id="filter2_f_18590_1681" x="3.0032" y="1.125" width="27.2812" height="5.5" filterUnits="userSpaceOnUse" color-interpolation-filters="sRGB">
<feFlood flood-opacity="0" result="BackgroundImageFix"/>
<feBlend mode="normal" in="SourceGraphic" in2="BackgroundImageFix" result="shape"/>
<feGaussianBlur stdDeviation="1" result="effect1_foregroundBlur_18590_1681"/>
</filter>
<filter id="filter3_f_18590_1681" x="5.3284" y="5.03906" width="21.7969" height="21.9219" filterUnits="userSpaceOnUse" color-interpolation-filters="sRGB">
<feFlood flood-opacity="0" result="BackgroundImageFix"/>
<feBlend mode="normal" in="SourceGraphic" in2="BackgroundImageFix" result="shape"/>
<feGaussianBlur stdDeviation="0.5" result="effect1_foregroundBlur_18590_1681"/>
</filter>
<filter id="filter4_ii_18590_1681" x="5.3284" y="5.63906" width="21.1969" height="21.3219" filterUnits="userSpaceOnUse" color-interpolation-filters="sRGB">
<feFlood flood-opacity="0" result="BackgroundImageFix"/>
<feBlend mode="normal" in="SourceGraphic" in2="BackgroundImageFix" result="shape"/>
<feColorMatrix in="SourceAlpha" type="matrix" values="0 0 0 0 0 0 0 0 0 0 0 0 0 0 0 0 0 0 127 0" result="hardAlpha"/>
<feOffset dx="-1" dy="1"/>
<feGaussianBlur stdDeviation="1"/>
<feComposite in2="hardAlpha" operator="arithmetic" k2="-1" k3="1"/>
<feColorMatrix type="matrix" values="0 0 0 0 0.866667 0 0 0 0 0.819608 0 0 0 0 0.941176 0 0 0 1 0"/>
<feBlend mode="normal" in2="shape" result="effect1_innerShadow_18590_1681"/>
<feColorMatrix in="SourceAlpha" type="matrix" values="0 0 0 0 0 0 0 0 0 0 0 0 0 0 0 0 0 0 127 0" result="hardAlpha"/>
<feOffset dx="0.4" dy="-0.4"/>
<feGaussianBlur stdDeviation="0.5"/>
<feComposite in2="hardAlpha" operator="arithmetic" k2="-1" k3="1"/>
<feColorMatrix type="matrix" values="0 0 0 0 1 0 0 0 0 0.988235 0 0 0 0 1 0 0 0 1 0"/>
<feBlend mode="normal" in2="effect1_innerShadow_18590_1681" result="effect2_innerShadow_18590_1681"/>
</filter>
<linearGradient id="paint0_linear_18590_1681" x1="16.2268" y1="5.63701" x2="16.2268" y2="38.8897" gradientUnits="userSpaceOnUse">
<stop stop-color="#5CB7FF"/>
<stop offset="1" stop-color="#4878DD"/>
</linearGradient>
<radialGradient id="paint1_radial_18590_1681" cx="0" cy="0" r="1" gradientUnits="userSpaceOnUse" gradientTransform="translate(27.9456 4.15625) rotate(136.771) scale(2.14444 2.50466)">
<stop stop-color="#7BD7FF"/>
<stop offset="1" stop-color="#7BD7FF" stop-opacity="0"/>
</radialGradient>
<linearGradient id="paint2_linear_18590_1681" x1="28.9768" y1="4.5625" x2="28.9768" y2="27.4375" gradientUnits="userSpaceOnUse">
<stop stop-color="#7FD9FF"/>
<stop offset="1" stop-color="#639DF4"/>
</linearGradient>
<linearGradient id="paint3_linear_18590_1681" x1="28.6907" y1="4.12502" x2="3.15945" y2="4.12502" gradientUnits="userSpaceOnUse">
<stop stop-color="#7DD8FF"/>
<stop offset="1" stop-color="#5DB6FF"/>
</linearGradient>
</defs>
</svg>

<svg width="100%" height="100%" viewBox="0 0 32 32" xmlns="http://www.w3.org/2000/svg"><g filter="url(#a)"><rect width="27.875" height="27.875" x="2.289" y="2.063" fill="url(#b)" rx="3.6"/><rect width="27.875" height="27.875" x="2.289" y="2.063" fill="url(#c)" rx="3.6"/></g><g filter="url(#d)"><path stroke="url(#e)" stroke-linecap="round" stroke-width="1.5" d="M28.477 4.563v22.875"/></g><g filter="url(#f)"><path stroke="url(#g)" stroke-linecap="round" stroke-width="1.5" d="M5.753 3.875h21.782"/></g><g filter="url(#h)"><path fill="#579FFF" d="M20.907 6.04a1 1 0 1 0 0 2h1.672a.1.1 0 0 1 .072.17l-3.34 3.38a.1.1 0 0 1-.132.008 8 8 0 1 0 1.535 1.542.1.1 0 0 1 .008-.132l3.232-3.272a.1.1 0 0 1 .171.07v1.53a1 1 0 1 0 2 0V7.039a1 1 0 0 0-1-1zm-6.579 5.92a6 6 0 1 1 0 12 6 6 0 0 1 0-12"/></g><g filter="url(#i)"><path fill="#FCF2FF" d="M20.907 6.04a1 1 0 1 0 0 2h1.672a.1.1 0 0 1 .072.17l-3.34 3.38a.1.1 0 0 1-.132.008 8 8 0 1 0 1.535 1.542.1.1 0 0 1 .008-.132l3.232-3.272a.1.1 0 0 1 .171.07v1.53a1 1 0 1 0 2 0V7.039a1 1 0 0 0-1-1zm-6.579 5.92a6 6 0 1 1 0 12 6 6 0 0 1 0-12"/></g><defs><filter id="a" width="28.875" height="28.875" x="2.289" y="1.063" color-interpolation-filters="sRGB" filterUnits="userSpaceOnUse"><feFlood flood-opacity="0" result="BackgroundImageFix"/><feBlend in="SourceGraphic" in2="BackgroundImageFix" result="shape"/><feColorMatrix in="SourceAlpha" result="hardAlpha" values="0 0 0 0 0 0 0 0 0 0 0 0 0 0 0 0 0 0 127 0"/><feOffset dx="1" dy="-1"/><feGaussianBlur stdDeviation="1.5"/><feComposite in2="hardAlpha" k2="-1" k3="1" operator="arithmetic"/><feColorMatrix values="0 0 0 0 0.188235 0 0 0 0 0.470588 0 0 0 0 0.843137 0 0 0 1 0"/><feBlend in2="shape" result="effect1_innerShadow_18590_1681"/><feColorMatrix in="SourceAlpha" result="hardAlpha" values="0 0 0 0 0 0 0 0 0 0 0 0 0 0 0 0 0 0 127 0"/><feOffset dy="-1"/><feGaussianBlur stdDeviation="1.5"/><feComposite in2="hardAlpha" k2="-1" k3="1" operator="arithmetic"/><feColorMatrix values="0 0 0 0 0.27451 0 0 0 0 0.34902 0 0 0 0 0.8 0 0 0 1 0"/><feBlend in2="effect1_innerShadow_18590_1681" result="effect2_innerShadow_18590_1681"/></filter><filter id="d" width="5.5" height="28.375" x="25.727" y="1.813" color-interpolation-filters="sRGB" filterUnits="userSpaceOnUse"><feFlood flood-opacity="0" result="BackgroundImageFix"/><feBlend in="SourceGraphic" in2="BackgroundImageFix" result="shape"/><feGaussianBlur result="effect1_foregroundBlur_18590_1681" stdDeviation="1"/></filter><filter id="f" width="27.281" height="5.5" x="3.003" y="1.125" color-interpolation-filters="sRGB" filterUnits="userSpaceOnUse"><feFlood flood-opacity="0" result="BackgroundImageFix"/><feBlend in="SourceGraphic" in2="BackgroundImageFix" result="shape"/><feGaussianBlur result="effect1_foregroundBlur_18590_1681" stdDeviation="1"/></filter><filter id="h" width="21.797" height="21.922" x="5.328" y="5.039" color-interpolation-filters="sRGB" filterUnits="userSpaceOnUse"><feFlood flood-opacity="0" result="BackgroundImageFix"/><feBlend in="SourceGraphic" in2="BackgroundImageFix" result="shape"/><feGaussianBlur result="effect1_foregroundBlur_18590_1681" stdDeviation=".5"/></filter><filter id="i" width="21.197" height="21.322" x="5.328" y="5.639" color-interpolation-filters="sRGB" filterUnits="userSpaceOnUse"><feFlood flood-opacity="0" result="BackgroundImageFix"/><feBlend in="SourceGraphic" in2="BackgroundImageFix" result="shape"/><feColorMatrix in="SourceAlpha" result="hardAlpha" values="0 0 0 0 0 0 0 0 0 0 0 0 0 0 0 0 0 0 127 0"/><feOffset dx="-1" dy="1"/><feGaussianBlur stdDeviation="1"/><feComposite in2="hardAlpha" k2="-1" k3="1" operator="arithmetic"/><feColorMatrix values="0 0 0 0 0.866667 0 0 0 0 0.819608 0 0 0 0 0.941176 0 0 0 1 0"/><feBlend in2="shape" result="effect1_innerShadow_18590_1681"/><feColorMatrix in="SourceAlpha" result="hardAlpha" values="0 0 0 0 0 0 0 0 0 0 0 0 0 0 0 0 0 0 127 0"/><feOffset dx=".4" dy="-.4"/><feGaussianBlur stdDeviation=".5"/><feComposite in2="hardAlpha" k2="-1" k3="1" operator="arithmetic"/><feColorMatrix values="0 0 0 0 1 0 0 0 0 0.988235 0 0 0 0 1 0 0 0 1 0"/><feBlend in2="effect1_innerShadow_18590_1681" result="effect2_innerShadow_18590_1681"/></filter><linearGradient id="b" x1="16.227" x2="16.227" y1="5.637" y2="38.89" gradientUnits="userSpaceOnUse"><stop stop-color="#5CB7FF"/><stop offset="1" stop-color="#4878DD"/></linearGradient><linearGradient id="e" x1="28.977" x2="28.977" y1="4.563" y2="27.438" gradientUnits="userSpaceOnUse"><stop stop-color="#7FD9FF"/><stop offset="1" stop-color="#639DF4"/></linearGradient><linearGradient id="g" x1="28.691" x2="3.159" y1="4.125" y2="4.125" gradientUnits="userSpaceOnUse"><stop stop-color="#7DD8FF"/><stop offset="1" stop-color="#5DB6FF"/></linearGradient><radialGradient id="c" cx="0" cy="0" r="1" gradientTransform="matrix(-1.56249 1.46876 -1.71548 -1.82495 27.946 4.156)" gradientUnits="userSpaceOnUse"><stop stop-color="#7BD7FF"/><stop offset="1" stop-color="#7BD7FF" stop-opacity="0"/></radialGradient></defs></svg>
